src/next/cmd/sc_graphicfiltersmooth.svg

<svg height="16" viewBox="0 0 16 16" width="16" xmlns="http://www.w3.org/2000/svg" xmlns:xlink="http://www.w3.org/1999/xlink"><filter id="a" color-interpolation-filters="sRGB" height="1.273459" width="1.496998" x="-.248499" y="-.13673"><feGaussianBlur stdDeviation=".39787491"/></filter><filter id="b" color-interpolation-filters="sRGB" height="1.047341" width="1.150274" x="-.075137" y="-.023671"><feGaussianBlur stdDeviation=".83043266"/></filter><radialGradient id="c" cx="14.487545" cy="280.09064" gradientTransform="matrix(-.66030771 3.8898645 -1.8332442 -.31119472 537.52832 309.99432)" gradientUnits="userSpaceOnUse" r="1.964281"><stop offset="0" stop-color="#eff9fc"/><stop offset="1" stop-color="#eff9fc" stop-opacity=".474265"/></radialGradient><linearGradient id="d" gradientTransform="matrix(.9255105 0 0 .94661177 -26.546845 -262.26615)" gradientUnits="userSpaceOnUse" x1="4.691042" x2="18.979647" y1="11.543122" y2="11.543122"><stop offset="0" stop-color="#b0ddf7"/><stop offset="1" stop-color="#9dd7fd" stop-opacity=".996078"/></linearGradient><linearGradient id="e" gradientUnits="userSpaceOnUse" x1="5.207031" x2="19.009077" y1="3.716883" y2="3.716883"><stop offset="0" stop-color="#deeef9"/><stop offset="1" stop-color="#deeef9" stop-opacity="0"/></linearGradient><filter id="f" color-interpolation-filters="sRGB" height="1.019351" width="1.03159" x="-.015795" y="-.009675"><feGaussianBlur stdDeviation=".090833672"/></filter><linearGradient id="g" gradientUnits="userSpaceOnUse" x1="-22.442705" x2="-8.941662" y1="-251.18762" y2="-251.18762"><stop offset="0" stop-color="#226fad"/><stop offset="1" stop-color="#1d5e92"/></linearGradient><g transform="matrix(.67791301 0 0 .67791301 -.143203 5.454754)"><path d="m12.749723-8c-.03225.00158-.06429.00616-.0957.013672l-.667969.1601562c-.214969.051531-.373945.2332176-.396484.453125-.217972 2.1582464-1.6289935 5.314407-2.2497262 6.4296875-1.1085651 1.3790006-2.2327719 2.8173643-3.2402344 4.2890623-.013811.01994-.026211.04083-.037109.0625-.9854079 1.981568-1.8016295 3.668702-1.5078125 5.974609.2473274 2.741388 2.013292 4.578449 3.9277344 5.519532.00581.0027.011671.0053.017578.0078 1.4182118.638922 3.3970357.68298 4.7753907.517578.0085-.0011.01696-.0024.02539-.0039 3.699219-.423822 5.497286-3.495093 6.199217-6.000011.178342-1.777229-.451782-3.328695-1.292969-4.730469-.837955-1.396375-1.887447-2.676042-2.66406-3.9667795-1.382391-2.7592495-1.486026-4.8733721-2.260043-8.3203125-.055289-.2470654-.280324-.4185204-.533203-.40625z" fill="url(#g)"/><path d="m12.106588-7.3206598c-.235352 2.3303625-1.663493 5.4772892-2.3190622 6.6504375-1.1187406 1.3906258-2.2516196 2.8387633-3.2588836 4.3101713-.9862902 1.983342-1.7370209 3.525235-1.4578521 5.688793.2267729 2.547844 1.8486184 4.224525 3.6419116 5.106054 1.2470677.561819 3.2012233.631279 4.5003263.475387 2.690156-.461722 5.026855-2.688293 5.76981-5.53934.326553-3.254198-2.286544-5.708563-3.897238-8.3930586-1.436797-2.858513-1.544347-5.0433057-2.311217-8.4584194z" fill="url(#d)"/><path d="m65.736328 16.472656c.183282 5.602538 2.431419 5.934678.784833 11.336475.872955 3.678439.980941 8.024373 1.289786 8.656143 4.563462 16.529273 13.5354 23.563517 18.11082 38.771806 2.792003 13.046799 10.938358 24.503702.735578 29.13008 13.211362-6.585601 7.557272-17.743312 9.068938-25.000531-4.575421-15.208289-18.420633-24.259232-22.984095-40.788504-.845503-1.72955-5.263672-21.943359-5.263672-21.943359z" fill="#6ec4f2" fill-opacity=".996078" fill-rule="evenodd" filter="url(#b)" transform="matrix(.19404984 0 0 .19404984 -.628247 -8.826528)"/><path d="m12.549955 284.607c.833583-.43064 4.442032-5.50301 3.756606-5.77718.167563-1.17294-2.443287-1.62625-2.70223-.74544-.186361.37272-.372722 1.3977-.652263 2.14314-.279541.74545-.18636 1.77043-.18636 2.23633s-.215753 2.14315-.215753 2.14315z" fill="url(#c)" fill-rule="evenodd" filter="url(#a)" transform="matrix(.9255105 0 0 .9255105 -3.778348 -255.87393)"/><path d="m12.775114-7.4804687-.06055.013672c.434863 2.0769692.697449 3.701392 1.217077 5.3906249-.443887-1.6581388-.677233-3.2698508-1.156527-5.4042969zm5.886995 14.3496097c.139064.596394.196326 1.214801.13086 1.867187-.742955 2.851047-3.079376 5.077341-5.769531 5.539063-1.299104.155892-3.2529328.08721-4.5000005-.47461-1.4179487-.697021-2.7177249-1.900053-3.3164063-3.628906.4705733 2.07787 1.9190432 3.483641 3.5058594 4.263672 1.2470677.561819 3.2008974.630501 4.5000004.474609 2.690156-.461722 5.026576-2.688015 5.769531-5.539062.08907-.887603-.05198-1.71246-.320313-2.501953z" fill="url(#e)" filter="url(#f)" opacity=".97"/></g></svg>

<?xml version="1.0" encoding="UTF-8" standalone="no"?>
<svg
   xmlns:dc="http://purl.org/dc/elements/1.1/"
   xmlns:cc="http://creativecommons.org/ns#"
   xmlns:rdf="http://www.w3.org/1999/02/22-rdf-syntax-ns#"
   xmlns:svg="http://www.w3.org/2000/svg"
   xmlns="http://www.w3.org/2000/svg"
   xmlns:sodipodi="http://sodipodi.sourceforge.net/DTD/sodipodi-0.dtd"
   xmlns:inkscape="http://www.inkscape.org/namespaces/inkscape"
   height="16"
   viewBox="0 0 16 16"
   width="16"
   version="1.1"
   id="svg41"
   sodipodi:docname="sc_graphicfiltersmooth.svg"
   inkscape:version="0.92.3 (2405546, 2018-03-11)"
   inkscape:export-filename="/home/rizmut/Dokumen/Rizmut/Github/libreoffice-style-karasa-jaga/build/next/cmd/sc_graphicfiltersmooth.png"
   inkscape:export-xdpi="96"
   inkscape:export-ydpi="96">
  <metadata
     id="metadata47">
    <rdf:RDF>
      <cc:Work
         rdf:about="">
        <dc:format>image/svg+xml</dc:format>
        <dc:type
           rdf:resource="http://purl.org/dc/dcmitype/StillImage" />
        <dc:title></dc:title>
      </cc:Work>
    </rdf:RDF>
  </metadata>
  <defs
     id="defs45">
    <filter
       inkscape:collect="always"
       style="color-interpolation-filters:sRGB"
       id="filter933"
       x="-0.24849906"
       width="1.4969981"
       y="-0.13672954"
       height="1.2734591">
      <feGaussianBlur
         inkscape:collect="always"
         stdDeviation="0.39787491"
         id="feGaussianBlur935" />
    </filter>
  </defs>
  <sodipodi:namedview
     pagecolor="#ffffff"
     bordercolor="#666666"
     borderopacity="1"
     objecttolerance="10"
     gridtolerance="10"
     guidetolerance="10"
     inkscape:pageopacity="0"
     inkscape:pageshadow="2"
     inkscape:window-width="1366"
     inkscape:window-height="714"
     id="namedview43"
     showgrid="true"
     inkscape:zoom="27.812867"
     inkscape:cx="3.6758137"
     inkscape:cy="8.7521739"
     inkscape:window-x="0"
     inkscape:window-y="28"
     inkscape:window-maximized="1"
     inkscape:current-layer="svg41">
    <inkscape:grid
       type="xygrid"
       id="grid872" />
  </sodipodi:namedview>
  <filter
     id="a"
     height="1.047341"
     width="1.150274"
     x="-0.075136997"
     y="-0.023670999"
     style="color-interpolation-filters:sRGB">
    <feGaussianBlur
       stdDeviation=".83043266"
       id="feGaussianBlur2" />
  </filter>
  <radialGradient
     id="b"
     cx="14.487545"
     cy="280.09064"
     gradientTransform="matrix(-0.66030771,3.8898645,-1.8332442,-0.31119472,537.52832,309.99432)"
     gradientUnits="userSpaceOnUse"
     r="1.964281">
    <stop
       offset="0"
       stop-color="#eff9fc"
       id="stop5" />
    <stop
       offset="1"
       stop-color="#eff9fc"
       stop-opacity=".474265"
       id="stop7" />
  </radialGradient>
  <filter
     id="c"
     height="1.365834"
     width="1.6977479"
     x="-0.348874"
     y="-0.182917"
     style="color-interpolation-filters:sRGB">
    <feGaussianBlur
       stdDeviation=".53227701"
       id="feGaussianBlur10" />
  </filter>
  <linearGradient
     id="d"
     gradientTransform="matrix(0.9255105,0,0,0.94661177,-26.546845,-262.26615)"
     gradientUnits="userSpaceOnUse"
     x1="4.6910419"
     x2="18.979647"
     y1="11.543122"
     y2="11.543122">
    <stop
       offset="0"
       stop-color="#b0ddf7"
       id="stop13" />
    <stop
       offset="1"
       stop-color="#9dd7fd"
       stop-opacity=".996078"
       id="stop15" />
  </linearGradient>
  <linearGradient
     id="e"
     gradientUnits="userSpaceOnUse"
     x1="5.2070308"
     x2="19.009077"
     y1="11.716883"
     y2="11.716883"
     gradientTransform="translate(0,-8)">
    <stop
       offset="0"
       stop-color="#deeef9"
       id="stop18" />
    <stop
       offset="1"
       stop-color="#deeef9"
       stop-opacity="0"
       id="stop20" />
  </linearGradient>
  <filter
     id="f"
     height="1.019351"
     width="1.03159"
     x="-0.015795"
     y="-0.0096749999"
     style="color-interpolation-filters:sRGB">
    <feGaussianBlur
       stdDeviation=".090833672"
       id="feGaussianBlur23" />
  </filter>
  <linearGradient
     id="g"
     gradientUnits="userSpaceOnUse"
     x1="-22.442705"
     x2="-8.9416618"
     y1="-243.18762"
     y2="-243.18762"
     gradientTransform="translate(0,-8)">
    <stop
       offset="0"
       stop-color="#226fad"
       id="stop26" />
    <stop
       offset="1"
       stop-color="#1d5e92"
       id="stop28" />
  </linearGradient>
  <g
     id="g870"
     transform="matrix(0.67791301,0,0,0.67791301,-0.14320309,5.4547541)">
    <path
       style="fill:url(#g)"
       inkscape:connector-curvature="0"
       id="path31"
       d="m 12.749723,-8 c -0.03225,0.00158 -0.06429,0.00616 -0.0957,0.013672 l -0.667969,0.1601562 c -0.214969,0.051531 -0.373945,0.2332176 -0.396484,0.453125 -0.217972,2.1582464 -1.6289935,5.314407 -2.2497262,6.4296875 C 8.2312787,0.4356413 7.1070719,1.874005 6.0996094,3.345703 c -0.013811,0.01994 -0.026211,0.04083 -0.037109,0.0625 -0.9854079,1.981568 -1.8016295,3.668702 -1.5078125,5.974609 0.2473274,2.741388 2.013292,4.578449 3.9277344,5.519532 0.00581,0.0027 0.011671,0.0053 0.017578,0.0078 1.4182118,0.638922 3.3970357,0.68298 4.7753907,0.517578 0.0085,-0.0011 0.01696,-0.0024 0.02539,-0.0039 C 17,15 18.798067,11.928729 19.499998,9.423811 19.67834,7.646582 19.048216,6.095116 18.207029,4.693342 17.369074,3.296967 16.319582,2.0173 15.542969,0.7265625 14.160578,-2.032687 14.056943,-4.1468096 13.282926,-7.59375 13.227637,-7.8408154 13.002602,-8.0122704 12.749723,-8 Z" />
    <path
       style="fill:url(#d)"
       inkscape:connector-curvature="0"
       id="path33"
       d="M 12.106588,-7.3206598 C 11.871236,-4.9902973 10.443095,-1.8433706 9.7875258,-0.6702223 8.6687852,0.7204035 7.5359062,2.168541 6.5286422,3.639949 5.542352,5.623291 4.7916213,7.165184 5.0707901,9.328742 c 0.2267729,2.547844 1.8486184,4.224525 3.6419116,5.106054 1.2470677,0.561819 3.2012233,0.631279 4.5003263,0.475387 2.690156,-0.461722 5.026855,-2.688293 5.76981,-5.53934 C 19.309391,6.116645 16.696294,3.66228 15.0856,0.9777844 13.648803,-1.8807286 13.541253,-4.0655213 12.774383,-7.480635 Z" />
    <path
       style="fill:#6ec4f2;fill-opacity:0.99607801;fill-rule:evenodd;filter:url(#a)"
       inkscape:connector-curvature="0"
       id="path35"
       transform="matrix(0.19404984,0,0,0.19404984,-0.628247,-8.826528)"
       d="m 65.736328,16.472656 c 0.183282,5.602538 2.431419,5.934678 0.784833,11.336475 0.872955,3.678439 0.980941,8.024373 1.289786,8.656143 4.563462,16.529273 13.5354,23.563517 18.11082,38.771806 2.792003,13.046799 10.938358,24.503702 0.735578,29.13008 C 99.868707,97.781559 94.214617,86.623848 95.726283,79.366629 91.150862,64.15834 77.30565,55.107397 72.742188,38.578125 71.896685,36.848575 67.478516,16.634766 67.478516,16.634766 Z" />
    <path
       style="fill:url(#b);fill-rule:evenodd;filter:url(#filter933)"
       inkscape:connector-curvature="0"
       id="path37"
       transform="matrix(0.9255105,0,0,0.9255105,-3.778348,-255.87393)"
       d="m 12.549955,284.607 c 0.833583,-0.43064 4.442032,-5.50301 3.756606,-5.77718 0.167563,-1.17294 -2.443287,-1.62625 -2.70223,-0.74544 -0.186361,0.37272 -0.372722,1.3977 -0.652263,2.14314 -0.279541,0.74545 -0.18636,1.77043 -0.18636,2.23633 0,0.4659 -0.215753,2.14315 -0.215753,2.14315 z" />
    <path
       style="opacity:0.97000002;fill:url(#e);filter:url(#f)"
       inkscape:connector-curvature="0"
       id="path39"
       d="m 12.775114,-7.4804687 -0.06055,0.013672 c 0.434863,2.0769692 0.697449,3.701392 1.217077,5.3906249 -0.443887,-1.6581388 -0.677233,-3.2698508 -1.156527,-5.4042969 z M 18.662109,6.869141 c 0.139064,0.596394 0.196326,1.214801 0.13086,1.867187 -0.742955,2.851047 -3.079376,5.077341 -5.769531,5.539063 -1.299104,0.155892 -3.2529328,0.08721 -4.5000005,-0.47461 -1.4179487,-0.697021 -2.7177249,-1.900053 -3.3164063,-3.628906 0.4705733,2.07787 1.9190432,3.483641 3.5058594,4.263672 1.2470677,0.561819 3.2008974,0.630501 4.5000004,0.474609 2.690156,-0.461722 5.026576,-2.688015 5.769531,-5.539062 0.08907,-0.887603 -0.05198,-1.71246 -0.320313,-2.501953 z" />
  </g>
</svg>
